assets/images/index/item-6.svg

<svg width="90" height="92" viewBox="0 0 90 92" fill="none" xmlns="http://www.w3.org/2000/svg">
<path d="M52.5026 88.6384C48.2371 91.157 41.2034 91.157 36.8925 88.6384L3.67561 69.314C-0.589949 66.7954 -0.589949 62.7199 3.67561 60.2471L36.8925 40.8769C41.1581 38.3583 48.1917 38.3583 52.5026 40.8769L85.7195 60.2471C89.9851 62.7657 89.9851 66.8412 85.7195 69.314L61.8959 83.1891L52.5026 88.6384Z" fill="white"/>
<path d="M44.6976 91.0191C41.6573 91.0191 38.7984 90.3322 36.6656 89.0958L3.44875 69.7256C1.22521 68.4434 0 66.6575 0 64.78C0 62.8567 1.22521 61.1166 3.44875 59.8344L36.6656 40.4642C38.7984 39.2278 41.6573 38.5409 44.6976 38.5409C47.7379 38.5409 50.5968 39.2278 52.7296 40.4642L85.9465 59.8344C88.17 61.1166 89.3952 62.9025 89.3952 64.78C89.3952 66.6575 88.17 68.4434 85.9465 69.7256L52.7296 89.0958C50.5968 90.3322 47.7379 91.0191 44.6976 91.0191ZM44.6976 39.4567C41.8388 39.4567 39.1615 40.0978 37.1648 41.2427L3.94791 60.6587C2.04202 61.7577 0.952944 63.2231 0.952944 64.78C0.952944 66.3369 1.99664 67.8023 3.94791 68.9013L37.1648 88.2716C39.1615 89.4164 41.8388 90.1033 44.743 90.1033C47.6018 90.1033 50.2791 89.4622 52.2758 88.2716L85.4927 68.9013C87.3986 67.8023 88.4876 66.3369 88.4876 64.78C88.4876 63.2231 87.4439 61.7577 85.4927 60.6587L52.2758 41.2884C50.2791 40.0978 47.5564 39.4567 44.6976 39.4567Z" fill="#0000BD"/>
<path d="M84.2221 64.7808L84.086 64.6893H84.1313L44.8791 41.793H44.8337L44.6976 41.7014L5.21851 64.6893L5.35464 64.7808H5.30926L44.5615 87.6771H44.6069L44.743 87.7687L84.2221 64.7808ZM46.2405 57.3625L57.3582 50.8599L68.4758 57.3625L57.3582 63.865L46.2405 57.3625ZM55.8153 64.7808L44.6976 71.2834L33.5799 64.7808L44.6976 58.2783L55.8153 64.7808ZM44.6976 56.4924L33.5799 49.9899L44.6976 43.4873L55.8153 49.9899L44.6976 56.4924ZM43.1547 57.3625L32.0371 63.865L20.9194 57.3625L32.0371 50.8599L43.1547 57.3625ZM30.4942 64.7808L19.3765 71.2834L8.25885 64.7808L19.3765 58.2783L30.4942 64.7808ZM32.0371 65.6509L43.1547 72.1534L32.0371 78.656L20.9194 72.1534L32.0371 65.6509ZM44.6976 73.0235L55.8153 79.526L44.6976 86.0286L33.5799 79.526L44.6976 73.0235ZM46.2405 72.1534L57.3582 65.6509L68.4758 72.1534L57.3582 78.656L46.2405 72.1534ZM58.901 64.7808L70.0187 58.2783L81.1364 64.7808L70.0187 71.2834L58.901 64.7808Z" fill="#0000BD" stroke="white" stroke-width="0.8"/>
<path d="M50.6421 57.6366L45.6959 60.5216L34.7144 54.1564L39.6606 51.2715L50.6421 57.6366Z" fill="white"/>
<path d="M45.6959 61.0256C45.6052 61.0256 45.5144 61.0256 45.4691 60.9798L34.4875 54.5689C34.3514 54.4773 34.2606 54.3399 34.2606 54.1568C34.2606 53.9736 34.3514 53.8362 34.4875 53.7446L39.4337 50.8597C39.5699 50.7681 39.7514 50.7681 39.9329 50.8597L50.9145 57.2707C51.0506 57.3622 51.1413 57.4996 51.1413 57.6828C51.1413 57.866 51.0506 58.0033 50.9145 58.0949L45.9682 60.9798C45.8321 61.0256 45.7413 61.0256 45.6959 61.0256ZM35.6673 54.1568L45.6959 59.9724L49.6892 57.637L39.6606 51.8213L35.6673 54.1568Z" fill="#DF0112"/>
<path d="M39.6606 51.2719L34.7144 54.1569V33.8708L39.6606 30.9858V51.2719Z" fill="white"/>
<path d="M34.7144 54.6601C34.6236 54.6601 34.5329 54.6601 34.4875 54.6143C34.3514 54.5227 34.2606 54.3853 34.2606 54.2021V33.8703C34.2606 33.6871 34.3514 33.5497 34.4875 33.4581L39.4337 30.5732C39.5699 30.4816 39.7514 30.4816 39.9329 30.5732C40.069 30.6648 40.1598 30.8022 40.1598 30.9853V51.2714C40.1598 51.4546 40.069 51.592 39.9329 51.6835L34.9413 54.5685C34.8959 54.6143 34.8052 54.6601 34.7144 54.6601ZM35.2136 34.145V53.3321L39.2069 50.9967V31.8096L35.2136 34.145Z" fill="#DF0112"/>
<path d="M33.0808 55.1176L28.0892 58.0025L57.6759 75.2205L62.6221 72.3355L33.0808 55.1176Z" fill="white"/>
<path d="M57.6758 75.7251C57.5851 75.7251 57.4943 75.7251 57.4489 75.6793L27.9077 58.4614C27.7715 58.3698 27.6808 58.2324 27.6808 58.0492C27.6808 57.8661 27.7715 57.7287 27.9077 57.6371L32.8539 54.7522C32.99 54.6606 33.1716 54.6606 33.3531 54.7522L62.8943 71.9701C63.0305 72.0617 63.1212 72.1991 63.1212 72.3823C63.1212 72.5654 63.0305 72.7028 62.8943 72.7944L57.9481 75.6793C57.812 75.6793 57.7212 75.7251 57.6758 75.7251ZM29.0875 58.0034L57.6758 74.6719L61.6691 72.3365L33.0808 55.668L29.0875 58.0034Z" fill="black"/>
<path d="M28.0891 3.37268V58.0031L57.6304 75.2211L28.0891 3.37268ZM34.7143 33.8705L45.6959 60.5217L34.7143 54.1108V33.8705Z" fill="white"/>
<path d="M57.6758 75.7247C57.5851 75.7247 57.4943 75.7247 57.4489 75.6789L27.9077 58.4609C27.7715 58.3693 27.6808 58.232 27.6808 58.0488V3.37256C27.6808 3.1436 27.8623 2.96043 28.0892 2.91464C28.3161 2.86884 28.543 3.00622 28.6337 3.18939L58.0842 75.0378C58.175 75.221 58.1296 75.45 57.9481 75.5873C57.9027 75.6789 57.7666 75.7247 57.6758 75.7247ZM28.5884 57.7283L56.6775 74.0762L28.5884 5.79956V57.7283ZM45.696 61.0253C45.6052 61.0253 45.5145 61.0253 45.4691 60.9795L34.4875 54.5686C34.3514 54.477 34.2606 54.3396 34.2606 54.1564V33.8704C34.2606 33.6414 34.4422 33.4582 34.669 33.4124C34.8959 33.3666 35.1228 33.504 35.2136 33.6872L46.1951 60.3384C46.2859 60.5216 46.2405 60.7506 46.059 60.8879C45.9229 60.9795 45.7867 61.0253 45.696 61.0253ZM35.2136 53.8817L44.6976 59.4226L35.2136 36.2974V53.8817Z" fill="#DF0112"/>
<path d="M62.622 72.3362L57.6757 75.2211L28.0891 3.37272L33.0807 0.487793L62.622 72.3362Z" fill="white"/>
<path d="M57.6758 75.7251C57.6304 75.7251 57.5851 75.7251 57.5397 75.6793C57.4035 75.6335 57.3128 75.5419 57.2674 75.4045L27.6808 3.5561C27.59 3.32714 27.6808 3.05238 27.9077 2.9608L32.8539 0.0758715C32.9447 -0.0157135 33.0808 -0.0157135 33.2169 0.030079C33.3531 0.0758715 33.4438 0.167456 33.4892 0.304834L63.0758 72.1533C63.1666 72.3822 63.0758 72.657 62.8489 72.7486L57.9027 75.6335C57.8119 75.6793 57.7212 75.7251 57.6758 75.7251ZM28.7245 3.5561L57.9027 74.5345L62.0321 72.1533L32.8539 1.17489L28.7245 3.5561Z" fill="#DF0112"/>
</svg>

<svg width="90" height="92" fill="none" xmlns="http://www.w3.org/2000/svg"><path d="M52.503 88.638c-4.266 2.519-11.3 2.519-15.61 0L3.675 69.314c-4.266-2.519-4.266-6.594 0-9.067l33.216-19.37c4.266-2.519 11.3-2.519 15.61 0l33.217 19.37c4.266 2.519 4.266 6.594 0 9.067L61.896 83.189l-9.393 5.45z" fill="#fff"/><path d="M44.698 91.02c-3.04 0-5.9-.688-8.032-1.924L3.449 69.726C1.225 68.443 0 66.657 0 64.78c0-1.923 1.225-3.663 3.449-4.946l33.217-19.37c2.132-1.236 4.991-1.923 8.032-1.923 3.04 0 5.899.687 8.032 1.923l33.217 19.37c2.223 1.283 3.448 3.069 3.448 4.946 0 1.877-1.225 3.663-3.448 4.946L52.73 89.096c-2.133 1.236-4.992 1.923-8.032 1.923zm0-51.563c-2.86 0-5.537.64-7.533 1.786L3.948 60.659C2.042 61.758.953 63.223.953 64.78c0 1.557 1.044 3.022 2.995 4.121l33.217 19.37c1.996 1.145 4.674 1.832 7.578 1.832 2.859 0 5.536-.64 7.533-1.831l33.217-19.37c1.906-1.1 2.995-2.565 2.995-4.122s-1.044-3.022-2.995-4.121l-33.217-19.37c-1.997-1.191-4.72-1.832-7.578-1.832z" fill="#0000BD"/><path d="M84.222 64.78l-.136-.09h.045L44.88 41.792h-.045l-.136-.092L5.218 64.69l.137.092h-.046l39.252 22.896h.046l.136.092 39.48-22.988zm-37.981-7.418l11.117-6.502 11.118 6.502-11.118 6.503-11.117-6.503zm9.574 7.419l-11.117 6.502-11.118-6.502 11.118-6.503 11.117 6.503zm-11.117-8.289L33.58 49.99l11.118-6.503 11.117 6.503-11.117 6.502zm-1.543.87l-11.118 6.503-11.118-6.503 11.118-6.502 11.118 6.502zm-12.66 7.419l-11.119 6.502L8.26 64.781l11.117-6.503 11.118 6.503zm1.542.87l11.118 6.502-11.118 6.503-11.118-6.503 11.118-6.502zm12.66 7.373l11.118 6.502-11.117 6.503-11.118-6.503 11.118-6.502zm1.543-.87l11.118-6.503 11.118 6.502-11.118 6.503-11.117-6.503zm12.661-7.373l11.118-6.503 11.117 6.503-11.117 6.502L58.9 64.781z" fill="#0000BD" stroke="#fff" stroke-width=".8"/><path d="M50.642 57.637l-4.946 2.885-10.982-6.366 4.947-2.884 10.981 6.365z" fill="#fff"/><path d="M45.696 61.026c-.09 0-.182 0-.227-.046l-10.982-6.411a.482.482 0 01-.226-.412c0-.183.09-.32.226-.412l4.947-2.885c.136-.092.317-.092.499 0l10.981 6.41a.482.482 0 01.227.413.48.48 0 01-.227.412l-4.946 2.885c-.136.046-.227.046-.272.046zm-10.029-6.87l10.029 5.816 3.993-2.335-10.028-5.816-3.994 2.336z" fill="#DF0112"/><path d="M39.66 51.272l-4.946 2.885V33.87l4.947-2.885v20.286z" fill="#fff"/><path d="M34.714 54.66c-.09 0-.181 0-.227-.046a.482.482 0 01-.226-.412V33.87c0-.183.09-.32.226-.412l4.947-2.885c.136-.091.317-.091.499 0a.482.482 0 01.227.412v20.286a.483.483 0 01-.227.413l-4.992 2.885a.345.345 0 01-.227.091zm.5-20.515v19.187l3.993-2.335V31.81l-3.993 2.335z" fill="#DF0112"/><path d="M33.08 55.118l-4.99 2.884L57.675 75.22l4.946-2.885L33.08 55.118z" fill="#fff"/><path d="M57.676 75.725c-.09 0-.182 0-.227-.046L27.908 58.461a.482.482 0 01-.227-.412c0-.183.09-.32.227-.412l4.946-2.885c.136-.091.318-.091.5 0l29.54 17.218a.482.482 0 01.227.412.48.48 0 01-.227.412l-4.946 2.885c-.136 0-.227.046-.272.046zM29.087 58.003l28.589 16.669 3.993-2.335-28.588-16.669-3.994 2.335z" fill="#000"/><path d="M28.09 3.373v54.63l29.54 17.218L28.09 3.373zm6.624 30.498l10.982 26.65-10.982-6.41V33.87z" fill="#fff"/><path d="M57.676 75.725c-.09 0-.182 0-.227-.046L27.908 58.46a.482.482 0 01-.227-.412V3.373c0-.23.181-.413.408-.458a.516.516 0 01.545.274l29.45 71.849a.44.44 0 01-.136.55c-.045.09-.181.137-.272.137zM28.588 57.728l28.09 16.348L28.588 5.8v51.928zm17.108 3.297c-.09 0-.181 0-.227-.045l-10.982-6.411a.482.482 0 01-.226-.413V33.87c0-.229.181-.412.408-.458a.516.516 0 01.545.275l10.981 26.651a.44.44 0 01-.136.55.72.72 0 01-.363.137zm-10.482-7.143l9.484 5.54-9.484-23.125v17.585z" fill="#DF0112"/><path d="M62.622 72.336l-4.946 2.885L28.089 3.373 33.081.488l29.541 71.848z" fill="#fff"/><path d="M57.676 75.725c-.046 0-.09 0-.136-.046a.411.411 0 01-.273-.275L27.681 3.556c-.091-.229 0-.504.227-.595L32.854.076c.09-.092.227-.092.363-.046a.411.411 0 01.272.275l29.587 71.848c.09.23 0 .504-.227.596l-4.946 2.885c-.091.045-.182.091-.227.091zM28.724 3.556l29.179 70.978 4.13-2.38-29.18-70.98-4.129 2.382z" fill="#DF0112"/></svg>
